svgs/sharp-regular/boxing-glove.svg

<svg xmlns="http://www.w3.org/2000/svg" viewBox="0 0 448 512"><!--! Font Awesome Pro 6.6.0 by @fontawesome - https://fontawesome.com License - https://fontawesome.com/license (Commercial License) Copyright 2024 Fonticons, Inc. --><path d="M0 0L24 0 368 0l24 0 0 24 0 104 32 0 24 0 0 24 0 136 0 9.9-7 7-89 89 0 94.1 0 24-24 0L56 512l-24 0 0-24 0-95.6L5.3 359 0 352.4 0 344 0 24 0 0zM392 176l-24 0-24 0-32 0-40 0 0 80 40 0 24 0 0 48-24 0-64 0-24 0 0-24 0-48-96 0-9.9 0-7-7L79 193 113 159l25 25 86.1 0 0-32 0-24 24 0 64 0 32 0 0-80L48 48l0 287.6L74.7 369l5.3 6.6 0 8.4 0 80 224 0 0-80 0-9.9 7-7 89-89L400 176l-8 0zM152.9 346.7L192 372.8l39.1-26.1 13.3-8.9 8.9 13.3 8.9 13.3-13.3 8.9-28 18.7 28 18.7 13.3 8.9-8.9 13.3-8.9 13.3-13.3-8.9L192 411.2l-39.1 26.1-13.3 8.9-8.9-13.3-8.9-13.3 13.3-8.9 28-18.7-28-18.7-13.3-8.9 8.9-13.3 8.9-13.3 13.3 8.9z"/></svg>

<svg xmlns="http://www.w3.org/2000/svg" viewBox="0 0 448 512"><!--! Font Awesome Pro 6.4.2 by @fontawesome - https://fontawesome.com License - https://fontawesome.com/license (Commercial License) Copyright 2023 Fonticons, Inc. --><path d="M0 0H24 368h24V24 128h32 24v24V288v9.9l-7 7-89 89V488v24H328 56 32V488 392.4L5.3 359 0 352.4V344 24 0zM392 176H368 344 312 272v80h40 24v48H312 248 224V280 232H128h-9.9l-7-7L79 193 113 159l25 25H224V152 128h24 64 32V48H48V335.6L74.7 369l5.3 6.6V384v80H304V384v-9.9l7-7 89-89V176h-8zM152.9 346.7L192 372.8l39.1-26.1 13.3-8.9 8.9 13.3 8.9 13.3-13.3 8.9-28 18.7 28 18.7 13.3 8.9-8.9 13.3-8.9 13.3-13.3-8.9L192 411.2l-39.1 26.1-13.3 8.9-8.9-13.3-8.9-13.3 13.3-8.9 28-18.7-28-18.7-13.3-8.9 8.9-13.3 8.9-13.3 13.3 8.9z"/></svg>
